images/svg/brand-img.svg

<svg width="164" height="43" viewBox="0 0 164 43" fill="none" xmlns="http://www.w3.org/2000/svg">
<g clip-path="url(#clip0_2_183)">
<path d="M34.7971 42.776H7.97888C3.57173 42.776 0 39.2043 0 34.7971V7.97889C0 3.57174 3.57173 0 7.97888 0H34.7971C39.2043 0 42.776 3.57174 42.776 7.97889V34.7971C42.776 39.2043 39.2043 42.776 34.7971 42.776Z" fill="#292F36"/>
<path d="M29.0944 21.7816C29.8572 22.7381 30.2446 23.852 30.2446 25.1112C30.2446 26.9636 29.6271 28.4165 28.3922 29.4457C27.1572 30.4748 25.3895 31.0076 23.0891 31.0076H13.0398V9.39551H22.8469C25.0505 9.39551 26.7456 9.87981 27.9442 10.8363C29.1429 11.7928 29.7482 13.161 29.7482 14.9287C29.7482 16.2363 29.3971 17.3139 28.707 18.1856C28.0169 19.0574 27.1088 19.6143 25.9828 19.8807C27.3025 20.1955 28.3316 20.8251 29.0944 21.7816ZM18.2582 18.2341H21.6846C23.5007 18.2341 24.4088 17.4592 24.4088 15.9094C24.4088 14.3597 23.4765 13.5848 21.6241 13.5848H18.2582V18.2341ZM24.8931 24.3847C24.8931 23.6098 24.6388 23.0045 24.1303 22.5686C23.6218 22.1327 22.8953 21.9148 21.9631 21.9148H18.2703V26.7699H21.9994C23.9245 26.7578 24.8931 25.9708 24.8931 24.3847Z" fill="white"/>
<path d="M67.5603 31.0076L62.8867 22.847H61.7002V31.0076H56.4697V9.39551H65.393C67.1002 9.39551 68.5531 9.68609 69.7275 10.2794C70.9141 10.8727 71.7979 11.6839 72.3912 12.713C72.9844 13.7422 73.275 14.9166 73.275 16.2484C73.275 17.8224 72.8391 19.1542 71.9795 20.256C71.1078 21.3578 69.8607 22.1085 68.202 22.5202L73.3356 31.0197H67.5603V31.0076ZM61.7002 19.2753H64.9329C65.9742 19.2753 66.7369 19.0453 67.2212 18.5852C67.7056 18.1251 67.9598 17.4471 67.9598 16.5511C67.9598 15.6915 67.7055 15.0256 67.2091 14.5292C66.7127 14.0448 65.9499 13.7906 64.9329 13.7906H61.7002V19.2753Z" fill="#292F36"/>
<path d="M96.9332 27.0725H88.8332L87.4893 31.0195H81.9924L89.9108 9.56494H95.9282L103.847 31.0195H98.2892L96.9332 27.0725ZM95.5892 23.0891L92.9014 15.1465L90.1772 23.0891H95.5892Z" fill="#292F36"/>
<path d="M132.699 31.0076H127.468L118.727 17.7377V31.0076H113.496V9.39551H118.727L127.468 22.7865V9.39551H132.699V31.0076Z" fill="#292F36"/>
<path d="M162.023 25.8011C161.115 27.4357 159.808 28.7191 158.113 29.6392C156.405 30.5594 154.408 31.0195 152.107 31.0195H143.947V9.40747H152.107C154.432 9.40747 156.442 9.85545 158.125 10.7514C159.82 11.6474 161.115 12.9066 162.023 14.5411C162.931 16.1756 163.379 18.0402 163.379 20.1711C163.379 22.2778 162.919 24.1545 162.023 25.8011ZM156.393 24.7114C157.519 23.6339 158.088 22.1083 158.088 20.159C158.088 18.1976 157.519 16.6841 156.393 15.6066C155.267 14.529 153.681 13.9842 151.635 13.9842H149.165V26.3339H151.635C153.681 26.3339 155.267 25.8011 156.393 24.7114Z" fill="#292F36"/>
</g>
<defs>
<clipPath id="clip0_2_183">
<rect width="164" height="43" fill="white"/>
</clipPath>
</defs>
</svg>

<svg width="164" height="43" fill="none" xmlns="http://www.w3.org/2000/svg"><g clip-path="url(#a)"><path d="M34.797 42.776H7.98A7.978 7.978 0 0 1 0 34.797V7.98A7.978 7.978 0 0 1 7.979 0h26.818a7.978 7.978 0 0 1 7.979 7.979v26.818a7.978 7.978 0 0 1-7.979 7.979Z" fill="#292F36"/><path d="M29.094 21.782c.763.956 1.15 2.07 1.15 3.33 0 1.852-.617 3.305-1.852 4.334-1.235 1.029-3.002 1.562-5.303 1.562H13.04V9.396h9.808c2.203 0 3.899.484 5.097 1.44 1.199.957 1.804 2.325 1.804 4.093 0 1.307-.35 2.385-1.041 3.257-.69.871-1.598 1.428-2.724 1.695 1.32.314 2.349.944 3.111 1.9Zm-10.836-3.548h3.427c1.816 0 2.724-.775 2.724-2.325 0-1.55-.932-2.324-2.785-2.324h-3.366v4.65Zm6.635 6.15c0-.774-.254-1.38-.763-1.815-.508-.436-1.235-.654-2.167-.654H18.27v4.855H22c1.924-.012 2.893-.8 2.893-2.385Z" fill="#fff"/><path d="m67.56 31.008-4.673-8.161H61.7v8.16h-5.23V9.397h8.923c1.707 0 3.16.29 4.335.883 1.186.594 2.07 1.405 2.663 2.434.593 1.03.884 2.204.884 3.535 0 1.574-.436 2.906-1.296 4.008-.871 1.102-2.118 1.852-3.777 2.264l5.134 8.5H67.56v-.012ZM61.7 19.275h3.233c1.041 0 1.804-.23 2.288-.69.485-.46.739-1.138.739-2.034 0-.86-.254-1.525-.75-2.022-.497-.484-1.26-.738-2.277-.738H61.7v5.484ZM96.933 27.073h-8.1L87.49 31.02h-5.497l7.919-21.455h6.017l7.919 21.455h-5.558l-1.356-3.947Zm-1.344-3.984-2.688-7.942-2.724 7.942h5.412ZM132.699 31.008h-5.231l-8.741-13.27v13.27h-5.231V9.396h5.231l8.741 13.39V9.396h5.231v21.612ZM162.023 25.801c-.908 1.635-2.215 2.918-3.91 3.838-1.708.92-3.705 1.38-6.006 1.38h-8.16V9.408h8.16c2.325 0 4.335.448 6.018 1.344 1.695.896 2.99 2.156 3.898 3.79.908 1.635 1.356 3.5 1.356 5.63 0 2.107-.46 3.983-1.356 5.63Zm-5.63-1.09c1.126-1.077 1.695-2.603 1.695-4.552 0-1.961-.569-3.475-1.695-4.552-1.126-1.078-2.712-1.623-4.758-1.623h-2.47v12.35h2.47c2.046 0 3.632-.533 4.758-1.623Z" fill="#292F36"/></g><defs><clipPath id="a"><path fill="#fff" d="M0 0h164v43H0z"/></clipPath></defs></svg>
